!!!OTL: TYROLER LASST UNS STREITEN
!!!ARE: Europa, Mitteleuropa, Oesterreich, Tirol
!!!SCT: E0346
!!!YEM: Copyright 1995, estate of Helmut Schaffrath.
**kern
*ICvox
*Ivox
*M6/8
*k[f#c#]
*D:
{16D
16F#
=1
4A
8A
4A
8A
=2
4.A
4F#}
{8A
=3
8G
8F#
8G
8E
8F#
8G
=4
4.A
4r}
{16D
16F#
=5
4A
8A
4A
8A
=6
4A
8d
4f#}
{8d
=7
4e
8e
8.c#
16B
8c#
=8
4.d
4r}
{8D
=9
4E
8E
8.d
16B
8G#
=10
4A
8c#
4E}
{8E
=11
4E
8E
8.d
16B
8G#
=12
2A
8r}
{8G
=13
4F#
8F#
8.G
16F#
8G
=14
4A
8d
4f#}
{8d
=15
4e
8e
8.c#
16B
8c#
=16
4.d
4r}
{8D
=17
4D
8F#
4F#
8A
=18
4A
8d
4f#}
{8d
=19
4e
8e
8.c#
16B
8c#
=20
4.d
4r}
==
!!!AGN: historisches Lied, Krieg (1809)
!!!ONB: ESAC (Essen Associative Code) Database: ERK1
!!!AMT: compound duple
!!!AIN: vox
!!!EED: Helmut Schaffrath
!!!EEV: 1.0
*-
